X:1
T:Title
%%score { ( 1 3 5 ) | ( 2 4 ) }
L:1/8
M:4/4
K:Eb
V:1 treble nm="Grand Piano"
V:3 treble 
V:5 treble 
V:2 bass 
V:4 bass 
V:1
 z4 z2[Q:1/4=100] EG | [GB]2 [GB]2 [GB]G z G | [EGB]2 [DFB]2 [EGB]2 [B,EG][GB] | %3
 [DFA]2 [DFA]2 .[B,DA]2 [F,B,D][DF] | [B,DA]2 [Dc]2 B2 z G | [EGB]2 [EGB]2 [EGB][EG]E-[EG] | %6
 [EGB]2 [DFB]2 [EGB]2 Gc | [EB]3 [EG] [DA]2 [DF]2 |[M:3/4] [B,E]6 |[M:1/4] [GB][Ge] | %10
[M:4/4] d3 A z2 z F | B2 B2 B3 [Ge] | d4 c4 | GGG[FA] [GB]2 [GB][Ge] | d4 c4 | B2 B2 B2 [Ec]2 | %16
 [B,E]3 [CEF] [B,EG]2 [A,DF]2 |[M:3/4][K:bass] [E,G,E]6 |] %18
V:2
 z4 z2 [E,G,][E,B,E] | [E,E]2 [E,E]2 E[B,E]G,B, | E,2 B,,2 E,2 z E | B,,2 B,,2 z F z B, | %4
 B,,2 [B,,A,]2 [E,G,E]2 G,B, | E,2 E,2 z B, z B, | z4 z2 .[E,B,]2 | %7
 [B,,G,]3 [B,,B,] [B,,B,]2 [B,,A,]2 |[M:3/4] [E,G,]6 |[M:1/4] [E,B,][E,B,] | %10
[M:4/4] [B,,B,]2 [D,B,]2 [F,A,D]2 [F,A,]2 | [G,E]2 [F,B,D]2 [E,G,E]3 [E,B,] | %12
 [B,,B,]2 [D,B,]2 [F,A,D]2 [B,,B,]2 | [E,B,E][E,B,E][E,B,E][E,B,] [E,E]2 [E,B,][E,B,] | %14
 [B,,B,]2 [D,B,]2 [F,A,D]2 [F,A,]2 | [G,E]2 [F,B,D]2 [E,G,E]2 [A,,A,]2 | G,,3 A,, B,,2 B,,2 | %17
[M:3/4] E,,6 |] %18
V:3
 x8 | z4 z2 E2 | x8 | x8 | z4 z2 E2 | z4 z2 .G,2 | x8 | x8 |[M:3/4] x6 |[M:1/4] x2 | %10
[M:4/4] F2 F2 c4 | x8 | F2 z A z2 z F | x8 | F2 z A z2 z F | x8 | x8 |[M:3/4][K:bass] x6 |] %18
V:4
 x8 | z4 E,2 E,2 | z4 z2 E,2 | z4 B,,2 B,,2 | z4 z2 E,2 | z4 E,2 E,2 | E,2 B,,2 E,2 E-[A,,A,E] | %7
 x8 |[M:3/4] x6 |[M:1/4] x2 |[M:4/4] x8 | x8 | x8 | x8 | x8 | x8 | x8 |[M:3/4] x6 |] %18
V:5
 x8 | x8 | x8 | x8 | x8 | x8 | x8 | x8 |[M:3/4] x6 |[M:1/4] x2 |[M:4/4] z4 z2 D2 | x8 | %12
 z2 F2 z2 D2 | x8 | z2 F2 z2 D2 | x8 | x8 |[M:3/4][K:bass] x6 |] %18

